2021/1/cappadocia/images/phone-right.svg

<svg width="30" height="30" viewBox="0 0 30 30" fill="none" xmlns="http://www.w3.org/2000/svg">
<g clip-path="url(#clip0)">
<path d="M23.7091 18.584C23.0949 17.9445 22.3541 17.6026 21.569 17.6026C20.7902 17.6026 20.0431 17.9382 19.4036 18.5777L17.4027 20.5722C17.2381 20.4835 17.0735 20.4012 16.9152 20.3189C16.6873 20.2049 16.472 20.0973 16.2884 19.9833C14.4142 18.793 12.7109 17.2417 11.0774 15.2345C10.2859 14.2341 9.75404 13.392 9.36781 12.5372C9.88701 12.0624 10.3682 11.5685 10.8368 11.0936C11.0141 10.9163 11.1913 10.7327 11.3686 10.5554C12.6983 9.22576 12.6983 7.50353 11.3686 6.17388L9.64007 4.44532C9.44379 4.24904 9.24117 4.04642 9.05122 3.84381C8.67132 3.45124 8.27242 3.04601 7.86086 2.66611C7.24669 2.05827 6.51221 1.73535 5.73974 1.73535C4.96727 1.73535 4.22013 2.05827 3.58696 2.66611C3.58063 2.67244 3.58063 2.67244 3.5743 2.67878L1.42152 4.85055C0.61106 5.66101 0.148846 6.64876 0.0475384 7.79479C-0.104423 9.64365 0.440104 11.3659 0.857997 12.4929C1.88373 15.2599 3.41601 17.8242 5.70175 20.5722C8.47504 23.8837 11.8118 26.4986 15.6235 28.3412C17.0798 29.0313 19.0237 29.8481 21.1954 29.9874C21.3284 29.9938 21.4677 30.0001 21.5943 30.0001C23.057 30.0001 24.2853 29.4746 25.2477 28.4298C25.2541 28.4172 25.2667 28.4108 25.2731 28.3982C25.6023 27.9993 25.9822 27.6384 26.3811 27.2521C26.6534 26.9925 26.932 26.7203 27.2042 26.4353C27.8311 25.7832 28.1603 25.0234 28.1603 24.2446C28.1603 23.4594 27.8247 22.706 27.1852 22.0728L23.7091 18.584ZM25.9759 25.2513C25.9695 25.2513 25.9695 25.2576 25.9759 25.2513C25.7289 25.5172 25.4757 25.7578 25.2034 26.0238C24.7918 26.4163 24.374 26.8279 23.9814 27.2901C23.3419 27.9739 22.5884 28.2969 21.6007 28.2969C21.5057 28.2969 21.4044 28.2969 21.3094 28.2905C19.4289 28.1702 17.6813 27.4357 16.3707 26.8089C12.7869 25.074 9.64007 22.611 7.02508 19.4895C4.86597 16.8871 3.42234 14.4811 2.46625 11.8977C1.8774 10.3211 1.66212 9.09279 1.7571 7.93409C1.82042 7.19328 2.10534 6.57911 2.63087 6.05358L4.78999 3.89446C5.10024 3.6032 5.42949 3.44491 5.75241 3.44491C6.1513 3.44491 6.47422 3.68552 6.67683 3.88813C6.68317 3.89446 6.6895 3.90079 6.69583 3.90713C7.08206 4.26803 7.4493 4.6416 7.83554 5.0405C8.03182 5.24312 8.23443 5.44573 8.43705 5.65468L10.1656 7.38323C10.8368 8.05439 10.8368 8.6749 10.1656 9.34606C9.98198 9.52968 9.8047 9.7133 9.62108 9.89059C9.08921 10.4351 8.58268 10.9417 8.03182 11.4355C8.01916 11.4482 8.00649 11.4545 8.00016 11.4672C7.45563 12.0117 7.55694 12.5436 7.67091 12.9045C7.67724 12.9235 7.68358 12.9425 7.68991 12.9615C8.13946 14.0505 8.77263 15.0763 9.73505 16.2983L9.74138 16.3046C11.4889 18.4574 13.3315 20.1353 15.3639 21.4206C15.6235 21.5852 15.8895 21.7182 16.1427 21.8448C16.3707 21.9588 16.586 22.0665 16.7696 22.1804C16.7949 22.1931 16.8202 22.2121 16.8456 22.2248C17.0608 22.3324 17.2634 22.383 17.4724 22.383C17.9979 22.383 18.3272 22.0538 18.4348 21.9462L20.6003 19.7807C20.8155 19.5654 21.1574 19.3058 21.5563 19.3058C21.9489 19.3058 22.2718 19.5528 22.4681 19.768C22.4744 19.7744 22.4744 19.7744 22.4808 19.7807L25.9695 23.2695C26.6217 23.9153 26.6217 24.5801 25.9759 25.2513Z" fill="#E2AB3F"/>
<path d="M16.2124 7.13611C17.8713 7.4147 19.3782 8.19983 20.5813 9.40286C21.7843 10.6059 22.5631 12.1128 22.848 13.7717C22.9176 14.1896 23.2786 14.4809 23.6901 14.4809C23.7408 14.4809 23.7851 14.4746 23.8357 14.4682C24.3043 14.3922 24.6145 13.949 24.5386 13.4805C24.1966 11.4733 23.2469 9.64346 21.7969 8.1935C20.347 6.74354 18.5171 5.79379 16.51 5.45187C16.0414 5.37589 15.6045 5.68615 15.5222 6.14836C15.4399 6.61058 15.7438 7.06013 16.2124 7.13611Z" fill="#E2AB3F"/>
<path d="M29.9654 13.2336C29.4019 9.92848 27.8443 6.92092 25.4509 4.52754C23.0575 2.13415 20.05 0.576553 16.7448 0.0130316C16.2826 -0.0692806 15.8457 0.247305 15.7634 0.709519C15.6874 1.17807 15.9977 1.61495 16.4662 1.69727C19.4168 2.19747 22.1078 3.59678 24.2479 5.73056C26.388 7.87068 27.781 10.5617 28.2812 13.5122C28.3508 13.9301 28.7117 14.2214 29.1233 14.2214C29.1739 14.2214 29.2183 14.215 29.2689 14.2087C29.7311 14.1391 30.0477 13.6958 29.9654 13.2336Z" fill="#E2AB3F"/>
</g>
<defs>
<clipPath id="clip0">
<rect width="30" height="30" fill="white"/>
</clipPath>
</defs>
</svg>

<svg width="30" height="30" fill="none" xmlns="http://www.w3.org/2000/svg"><g clip-path="url(#clip0)" fill="#E2AB3F"><path d="M23.71 18.584c-.615-.64-1.356-.981-2.141-.981-.779 0-1.526.335-2.165.975l-2.001 1.994c-.165-.088-.33-.17-.488-.253-.228-.114-.443-.222-.627-.336-1.874-1.19-3.577-2.741-5.21-4.748-.792-1-1.324-1.843-1.71-2.698.519-.475 1-.969 1.469-1.443.177-.178.354-.361.532-.539 1.33-1.33 1.33-3.051 0-4.381L9.64 4.445c-.196-.196-.399-.399-.589-.601a29.89 29.89 0 00-1.19-1.178c-.614-.608-1.349-.93-2.121-.93-.773 0-1.52.322-2.153.93l-.013.013L1.422 4.85A4.632 4.632 0 00.048 7.795c-.152 1.849.392 3.57.81 4.698 1.026 2.767 2.558 5.331 4.844 8.08 2.773 3.31 6.11 5.926 9.921 7.768 1.457.69 3.4 1.507 5.572 1.646.133.007.273.013.4.013 1.462 0 2.69-.525 3.653-1.57.006-.013.019-.02.025-.032.33-.399.71-.76 1.108-1.146.272-.26.551-.532.823-.817.627-.652.956-1.412.956-2.19 0-.786-.335-1.539-.975-2.172l-3.476-3.489zm2.266 6.667c-.006 0-.006.007 0 0-.247.266-.5.507-.773.773-.411.392-.829.804-1.222 1.266-.64.684-1.393 1.007-2.38 1.007-.095 0-.197 0-.292-.006-1.88-.12-3.628-.855-4.938-1.482-3.584-1.735-6.73-4.198-9.346-7.32-2.159-2.602-3.603-5.008-4.559-7.591-.589-1.577-.804-2.805-.709-3.964.063-.74.348-1.355.874-1.88l2.159-2.16c.31-.29.64-.45.962-.45.4 0 .722.242.925.444l.019.02c.386.36.753.734 1.14 1.132.196.203.398.406.601.615l1.729 1.728c.67.671.67 1.292 0 1.963-.184.184-.361.367-.545.545a33.023 33.023 0 01-1.59 1.544c-.012.013-.025.02-.03.032-.545.545-.444 1.077-.33 1.438l.019.056c.45 1.09 1.083 2.115 2.045 3.337l.006.007c1.748 2.152 3.59 3.83 5.623 5.116.26.164.525.297.779.424.228.114.443.222.627.335.025.013.05.032.076.045.215.107.417.158.626.158.526 0 .855-.33.963-.437l2.165-2.165c.215-.216.557-.475.956-.475.393 0 .716.247.912.462l.013.013 3.488 3.489c.653.645.653 1.31.007 1.981zM16.212 7.136a8.03 8.03 0 014.37 2.267 8.071 8.071 0 012.266 4.369c.07.418.43.709.842.709a.856.856 0 00.848-1 9.766 9.766 0 00-2.741-5.287 9.766 9.766 0 00-5.287-2.742.86.86 0 00-.988.696.846.846 0 00.69.988zM29.965 13.234a16.066 16.066 0 00-4.514-8.706A16.066 16.066 0 0016.745.013a.852.852 0 00-.982.697.859.859 0 00.703.987c2.95.5 5.642 1.9 7.782 4.034a14.344 14.344 0 014.033 7.781c.07.418.43.71.842.71.05 0 .095-.007.146-.013a.839.839 0 00.696-.975z"/></g><defs><clipPath id="clip0"><path fill="#fff" d="M0 0h30v30H0z"/></clipPath></defs></svg>
